_/img/chevron-down.svg

<svg width="18" height="18" viewBox="0 0 18 18" fill="none" xmlns="http://www.w3.org/2000/svg">
<path d="M4.16954 5.3619C3.89997 5.04741 3.4265 5.01098 3.112 5.28055C2.79751 5.55012 2.76109 6.02359 3.03066 6.33809L4.16954 5.3619ZM9.0001 12.15L8.43066 12.6381C8.57314 12.8043 8.78115 12.9 9.0001 12.9C9.21904 12.9 9.42705 12.8043 9.56954 12.6381L9.0001 12.15ZM14.9695 6.33809C15.2391 6.02359 15.2027 5.55012 14.8882 5.28055C14.5737 5.01098 14.1002 5.04741 13.8307 5.3619L14.9695 6.33809ZM3.03066 6.33809L8.43066 12.6381L9.56954 11.6619L4.16954 5.3619L3.03066 6.33809ZM9.56954 12.6381L14.9695 6.33809L13.8307 5.3619L8.43066 11.6619L9.56954 12.6381Z" fill="#8A8CA2"/>
</svg>

<svg width="18" height="18" viewBox="0 0 18 18" fill="none" xmlns="http://www.w3.org/2000/svg"><path d="M4.17 5.362a.75.75 0 10-1.14.976l1.14-.976zM9 12.15l-.57.488a.75.75 0 001.14 0L9 12.15zm5.97-5.812a.75.75 0 10-1.14-.976l1.14.976zm-11.94 0l5.4 6.3 1.14-.976-5.4-6.3-1.14.976zm6.54 6.3l5.4-6.3-1.14-.976-5.4 6.3 1.14.976z" fill="#8A8CA2"/></svg>
